images/regime_icon1.svg

<svg width="17" height="13" viewBox="0 0 17 13" fill="none" xmlns="http://www.w3.org/2000/svg">
<g opacity="0.5">
<path d="M15.0787 5.11829H1.26238C0.56632 5.11829 0 5.68461 0 6.3807V9.75337H16.3411V6.3807C16.3411 5.68461 15.7748 5.11829 15.0787 5.11829Z" fill="#030A1B"/>
<path d="M8.64929 2.15326H12.6982V4.16091H8.64929V2.15326Z" fill="#030A1B"/>
<path d="M2.68531 1.1959H8.17045H13.6556V4.16104H14.8515V0H1.48944V4.16104H2.68531V1.1959Z" fill="#030A1B"/>
<path d="M3.6427 2.15326H7.69162V4.16091H3.6427V2.15326Z" fill="#030A1B"/>
<path d="M0.510681 10.7111H15.8299V12.185H0.510681V10.7111Z" fill="#030A1B"/>
</g>
</svg>

<svg width="17" height="13" fill="none" xmlns="http://www.w3.org/2000/svg"><g opacity=".5" fill="#030A1B"><path d="M15.079 5.118H1.262C.566 5.118 0 5.685 0 6.381v3.372h16.341V6.381c0-.696-.566-1.263-1.262-1.263zM8.65 2.153h4.048v2.008H8.65V2.153z"/><path d="M2.685 1.196h10.971V4.16h1.195V0H1.49v4.161h1.196V1.196z"/><path d="M3.643 2.153h4.049v2.008h-4.05V2.153zM.51 10.711h15.32v1.474H.51v-1.474z"/></g></svg>
